X: 3
T: the Banshee 3
T: McMahon's Reel
C: James McMahon
R: reel
Z: John Chambers <jc:trillian.mit.edu>
M: C|
L: 1/8
K: G
|:\
"G"~G3D ED[EB,][GD] | "(Am)"[AG][GD][AG]B "D7"d2Bd | "G"eged "Em"BAGA | "C"BAGE "D7"EDEF |
"G"~G3D EDEG | "Am"AGAB "D7"d2Bd | "G"eged "Em"BAGA | "C"BAGE "D7"EDD2 :|
|:\
"Am"eaag efge | "G"dBBA "(Bm)"B2Bd | "Em"eB~B2 gBfB | eBBA B2Bd |
"Am"eaag efge | "G"dBBA "(Bm)"B2Bd | "C"eged "Em"BAGA | "Am"BAGE "D7"EDD2 :|
